svg/layers_triple_outline.svg

<svg xmlns="http://www.w3.org/2000/svg" viewBox="0 0 24 24"><path d="m12 16.54 7.37-5.74L21 12.07l-9 7-9-7 1.62-1.26zM12 14 3 7l9-7 9 7zm0-11.47L6.26 7 12 11.47 17.74 7zm0 18.94 7.37-5.74L21 17l-9 7-9-7 1.62-1.26z"/></svg>

<?xml version="1.0" encoding="UTF-8"?><!DOCTYPE svg PUBLIC "-//W3C//DTD SVG 1.1//EN" "http://www.w3.org/Graphics/SVG/1.1/DTD/svg11.dtd"><svg xmlns="http://www.w3.org/2000/svg" xmlns:xlink="http://www.w3.org/1999/xlink" version="1.1" id="mdi-layers-triple-outline" width="24" height="24" viewBox="0 0 24 24"><path d="M12 16.54L19.37 10.8L21 12.07L12 19.07L3 12.07L4.62 10.81L12 16.54M12 14L3 7L12 0L21 7L12 14M12 2.53L6.26 7L12 11.47L17.74 7L12 2.53M12 21.47L19.37 15.73L21 17L12 24L3 17L4.62 15.74L12 21.47" /></svg>
